X:998
T:Romance
C:anon.
O:Spain
Z:Transcribed by Frank Nordberg - http://www.musicaviva.com
F:http://abc.musicaviva.com/tunes/spain/romance.abc
M:3/4
L:1/16
Q:1/4=120
K:Em
"Em"B4B4B4|"Em"B4A4G4|"Em"G4F4E4|"B7"E4G4B4|
"F#m"e4e4e4|"B7"e4d4c4|"Am"c4B4A4|"Am"A4B4c4|
"B7"B4c4B4|"B7"^d4c4B4|"Em"B4A4G4|"Em"G4F4E4|
"Am6"F4F4F4|"B7"F4G4F4|"Em"E12-|"Em"E8z4:|
K:E
"E"G4G4G4|"E"G4F4E4|"F#m"E4D4D4|"E"D4F4A4|
"A"c4c4c4"A"|c4d4c4|"E"c4B4B4|"E"B4c4d4|
"E"e4e4e4|"E7"e4d4=d4|"A"c4c4c4|"A"c4B4A4|
"E/B"G4G4G4|"B7"G4A4F4|"E"E12-|"E"E8z4|]
W:
W:
W:  From Musica Viva - http://www.musicaviva.com
W:  the Internet center for free sheet music downloads.


